!! 00000] TT[00
!! NN
!!!OTL: Daban xiaolang yi zhi hua
!!!ARE: Asia, China,ÿHubei, Changyang
!! Ethnic Group: Han
!! I, 449
!!!SCT: C0113
!!!YEM: Copyright 1995, estate of Helmut Schaffrath.
**kern
*ICvox
*Ivox
*M2/4
*k[b-]
*F:
{8cc
16cc
16a
8cc
8dd
=1
2ff}
=2
{8.gg
16ff
8dd
8dd
=3
2cc}
=4
{8cc
16cc
16a
8cc
8dd
=5
2ff}
=6
{8a
8cc
8a
8dd
=7
2cc}
=8
{16a
16cc
4a
8ff
=9
8dd
8cc
4a
=10
16a
16cc
16cc
16a
8dd
8ff
=11
8cc
8cc
8a
8cc}
=12
{8.f
16g
8a
8cc
=13
8g
8a
4f
=14
8g
8f
16d
16f
16c
16d
=15
2f}
=16
{16a
16cc
4a
8ff
=17
8dd
8cc
8a
16g
16a
=18
2cc}
=19
{8.f
16g
8a
8cc
=20
8g
8a
4f
=21
8g
8e
16d
16f
16c
16d
=22
2f}
==
!!!AGN: Wuge, Dengdiao, Huaguzi. Jiaowang liyi
!!!ONB: ESAC (Essen Associative Code) Database: CHINA
!!!AMT: simple duple
!!!AIN: vox
!!!EED: Helmut Schaffrath
!!!EEV: 1.0
*-
